X:5958
T:Gan Ainm
R:Reel
S:
H:
N:
D:Milltown Malbay Concertina Recital
Z:Adrian Scahill
M:4/4
L:1/8
K:G
gf|e2dB eBdB|A3B AGEG|DGG2 DGBd|edef gbag|\
e2dB eBdB|A2BG AGEG|DGG2 EGce|1 dc'ba g3f:|2 dc'ba g3a||\
(3bc'b ag bgag|eage dBAB|Bdde degb|(3aba gb a3a|\
bgag bgag|eage dBAB|DGG2 EGce|dc'ba g3a:||


